24x24/apps/io.typora.Typora.svg

<svg xmlns="http://www.w3.org/2000/svg" width="24" height="24" version="1">
 <g transform="translate(1,1)">
  <rect fill="#f4f4f7" width="20" height="20" x="-21" y="-21" rx="1" ry="1" transform="matrix(0,-1,-1,0,0,0)"/>
  <path fill="#fff" opacity=".2" d="m2 1c-0.554 0-1 0.446-1 1v0.5c0-0.554 0.446-1 1-1h18c0.554 0 1 0.446 1 1v-0.5c0-0.554-0.446-1-1-1h-18z"/>
  <path opacity=".2" d="m2 21.5c-0.554 0-1-0.446-1-1v-0.5c0 0.554 0.446 1 1 1h18c0.554 0 1-0.446 1-1v0.5c0 0.554-0.446 1-1 1h-18z"/>
  <path opacity=".6" d="m16.5 4h-11l-0.5 5h0.9704c0.1336-0.9695 0.3053-1.3158 0.5152-1.9363 0.496-1.4155 1.2616-2.0522 2.5589-2.0522 0.62957 0 0.89666 0.2133 0.89666 0.69806v10.368c0 0.8144-0.17949 0.75637-1.717 0.91136h-0.22417v1.0112h6v-1.0112h-0.22417c-1.5262 0-1.6979-0.09695-1.6979-0.91136v-10.368c0-0.48476 0.26709-0.69806 0.89666-0.69806 1.1638 0 1.9487 0.55917 2.4257 1.7226 0.286 0.717 0.477 1.1602 0.63 2.2655h0.97z"/>
 </g>
</svg>

<svg xmlns="http://www.w3.org/2000/svg" width="24" height="24" version="1"><g transform="translate(1 1)"><rect fill="#f4f4f7" width="20" height="20" x="-21" y="-21" rx="1" ry="1" transform="matrix(0 -1 -1 0 0 0)"/><path fill="#fff" opacity=".2" d="M2 1c-.554 0-1 .446-1 1v.5c0-.554.446-1 1-1h18c.554 0 1 .446 1 1V2c0-.554-.446-1-1-1H2z"/><path opacity=".2" d="M2 21.5c-.554 0-1-.446-1-1V20c0 .554.446 1 1 1h18c.554 0 1-.446 1-1v.5c0 .554-.446 1-1 1H2z"/><path opacity=".6" d="M16.5 4h-11L5 9h.97c.134-.97.306-1.316.516-1.936.496-1.416 1.261-2.053 2.558-2.053.63 0 .897.214.897.699v10.368c0 .814-.18.756-1.717.91H8V18h6V16.99h-.224c-1.526 0-1.698-.097-1.698-.911V5.71c0-.485.267-.699.897-.699 1.163 0 1.948.56 2.425 1.723.286.717.477 1.16.63 2.266H17z"/></g></svg>
